X:20
T:Flours of Edinburgh. JaW.020
T:Flowers Of Edinburgh. JaW.020
M:C|
L:1/8
Q:1/2=80
S:James Winder Ms, Lancashire, 1835-41
R:.Reel
O:England
A:Wyresdale,Lancashire
Z:vmp.Chris Partington, Aug 2004
K:G
“_key D in ms”(GF/E/)|D3 E G3A|BABd B2 AG|F3E DEFG|AFdF EFGE|!
D3E G3A|BABd e3g|B2 AG AGAc|B2G2 G2:|!
|:d2|gfga b2 ag|fefg a2 gf|edef gfed|B2 e2 e2g2|!
dBAG d2 cB|edef g3a|B2 AG AGAc|B2 G2 G2:|!
|:GE|DEDE GEGA|BABc BdcB|AGAB cBcd|edef gab2|!
DEDE GEGA|BABc e2B2|B2AG BAGA|B2G2 G2:|!
|:d2|gdfa b2ag|fefg a2gf|edef gfed|B2e2 e2G2|!
Bdg2 Bde2|Add2 Gcc2|B2AG BAGA|B2G2 G2:|

